Gurmukhi/0A4B.svg

<svg enable-background="new 0 0 336 592" viewBox="0 0 336 592" xmlns="http://www.w3.org/2000/svg"><path d="m110.171593 108.240585c2.761223.787743 2.528145 3.128548 3.042305 4.923889 4.390197 15.329636 13.732345 22.10077 29.752517 21.768738 10.162201-.210663 20.135987-2.382126 30.337342-2.355728 14.402771.037293 25.398636 6.003128 33.116028 17.950424 9.464935 14.65271 13.503387 31.317032 17.721374 48.431992-4.673172 1.636032-9.110931 1.138489-13.485992.651138-2.270234-.252884-2.351303-2.535553-2.908142-4.220245-1.774781-5.369415-3.199997-10.877075-5.313935-16.107575-7.318634-18.10849-19.020218-24.368072-38.328003-21.514938-11.675461 1.725281-23.417999 3.121368-35.146881-.380829-14.07209-4.201858-23.004257-15.451706-23.313362-30.103836-.140015-6.637054-.459061-13.360947 4.526749-19.04303z"/><path d="m241.08255 278.258514c-5.090088 1.01883-8.601883-.661132-10.405106-5.086517-1.563095-3.83609-.254165-7.2276 2.914078-9.675964 3.240402-2.504059 6.794419-2.4758 10.120514-.074372 5.5121 3.979706 4.426911 10.862763-2.629486 14.836853z"/><path d="m119.530182 277.711761c-7.819763 1.926972-13.542641-2.38449-12.264122-8.853149.78685-3.981018 3.153793-6.575195 7.265549-7.064331 4.062614-.483246 7.188858 1.299805 8.825164 5.00592 1.972481 4.46753.317215 8.008515-3.826591 10.91156z"/><path d="m113.805557 303.099121c-5.906151 1.463928-10.094337-.413055-11.707329-4.93988-1.336807-3.75174.457116-8.272736 4.048829-10.203797 3.913292-2.103943 8.459487-1.042205 11.0242 2.574646 2.747002 3.873902 1.553947 8.812287-3.3657 12.569031z"/><path d="m170.260345 223.52832c3.319993-3.671646 6.960282-4.564178 11.026001-2.416275 3.556397 1.87883 4.540497 5.139649 3.983246 8.920273-.588516 3.992691-3.230224 6.032852-6.963608 6.837982-3.077102.663605-5.557952-.498291-7.52333-2.825317-2.699906-3.196716-2.729538-6.630539-.522309-10.516663z"/><path d="m242.487961 303.725067c-4.036713-1.241028-6.420639-3.496338-6.786652-7.488251-.296875-3.237884.727066-5.928344 3.483231-7.774078 3.057022-2.04715 6.26506-2.189636 9.392883-.230438 3.176224 1.989502 4.249451 5.044128 3.655457 8.633362-.562745 3.400238-2.435837 5.793792-5.946366 6.567962-1.116775.246247-2.282379.271027-3.798553.291443z"/><path d="m218.112579 337.202271c3.83786-3.476136 7.834854-3.705964 11.565262-.998292 3.191849 2.316773 4.401917 5.677277 2.675736 9.657136-1.741577 4.015411-4.792969 5.83551-9.064225 5.346435-6.248352-.715515-8.77362-7.219177-5.176773-14.005279z"/><path d="m224.09079 256.336487c-5.666046-1.358734-8.657959-4.645996-8.056-8.800858.59758-4.124603 2.69368-7.164154 7.162094-7.796585 4.524307-.64035 8.378357 1.874802 9.588074 6.118469 1.457962 5.114472-1.944809 9.426453-8.694168 10.478974z"/><path d="m122.94519 316.414795c2.027329 5.785004.537423 9.958221-3.948761 11.949524-3.994812 1.773193-8.444702.317413-10.738227-3.513062-2.185379-3.649872-1.141434-8.58081 2.340889-11.056762 4.151008-2.951386 7.916687-2.24588 12.346099 2.6203z"/><path d="m243.384857 327.575623c-5.339798 2.263855-9.084396 1.482727-11.707687-2.158936-2.491425-3.458649-2.044922-7.013519.38446-10.088135 2.636322-3.336517 6.340592-4.098694 10.264817-2.343139 5.679885 2.540985 6.245498 8.911041 1.05841 14.59021z"/><path d="m128.474884 334.585083c5.990189.261688 9.465363 2.895935 9.715378 7.430298.233414 4.232666-1.688675 7.354523-5.79802 8.807892-4.024566 1.423401-8.085754-.232422-10.144989-3.9917-2.665527-4.866119-.170227-10.066131 6.227631-12.24649z"/><path d="m194.124939 354.631378c1.876343-4.955383 5.301407-6.679016 9.964752-5.902435 3.649063.607666 5.842179 2.972442 6.524063 6.572815.726334 3.8349-.787994 6.825317-4.029983 8.841705-2.730454 1.698212-5.758942 1.83728-8.472733.157013-3.361587-2.081329-4.984604-5.20227-3.986099-9.669098z"/><path d="m198.875244 241.661148c-3.951828-2.431518-5.941284-5.481964-4.768265-9.819626.884995-3.272568 2.878418-5.59732 6.47342-6.123611 5.466568-.800263 9.963455 2.534988 10.273117 7.628891.305374 5.023453-3.772995 9.020538-9.173066 8.932937-.817382-.01326-1.630722-.27716-2.805206-.618591z"/><path d="m171.408783 368.540161c-3.336792-3.728149-3.678436-7.501617-1.050476-11.221985 2.07988-2.944427 5.165649-4.256225 8.765106-3.228332 3.214172.917816 5.694443 2.82727 6.142868 6.446502.433762 3.500855-.174637 6.697113-3.431732 8.74054-3.453919 2.166931-6.878952 2.221954-10.425766-.736725z"/><path d="m122.123344 244.331039c3.660111-4.732482 7.918358-6.060653 11.764611-3.659057 3.586868 2.239685 5.238983 5.503799 3.893219 9.780899-1.338272 4.25328-5.296112 6.558411-9.768051 5.800598-4.946755-.838303-7.30037-5.33284-5.889779-11.92244z"/><path d="m147.985809 241.440704c-4.036117-2.616287-5.077041-6.130157-4.056991-10.174545.795334-3.153366 3.08435-5.048065 6.354309-5.5271 3.561279-.521698 6.593414.412262 8.665878 3.547898 2.051361 3.103683 2.026596 6.36792-.051926 9.319458-2.609191 3.7052-6.294693 4.582413-10.91127 2.834289z"/><path d="m160.158432 358.573608c-1.680298 5.192994-5.019623 7.436036-9.993896 6.576752-3.594513-.620972-5.85962-3.01535-6.438935-6.678223-.846924-5.354949 2.233917-9.410186 7.296295-9.794036 5.873673-.445343 9.079926 2.860107 9.136536 9.895507z"/></svg>

<svg version="1.1" id="Layer_1" xmlns="http://www.w3.org/2000/svg" xmlns:xlink="http://www.w3.org/1999/xlink" x="0px" y="0px"
	 width="100%" viewBox="0 0 336 592" enable-background="new 0 0 336 592" xml:space="preserve">
<path fill="#000000" opacity="1.000000" stroke="none" 
	d="
M110.171593,108.240585 
	C112.932816,109.028328 112.699738,111.369133 113.213898,113.164474 
	C117.604095,128.494110 126.946243,135.265244 142.966415,134.933212 
	C153.128616,134.722549 163.102402,132.551086 173.303757,132.577484 
	C187.706528,132.614777 198.702393,138.580612 206.419785,150.527908 
	C215.884720,165.180618 219.923172,181.844940 224.141159,198.959900 
	C219.467987,200.595932 215.030228,200.098389 210.655167,199.611038 
	C208.384933,199.358154 208.303864,197.075485 207.747025,195.390793 
	C205.972244,190.021378 204.547028,184.513718 202.433090,179.283218 
	C195.114456,161.174728 183.412872,154.915146 164.105087,157.768280 
	C152.429626,159.493561 140.687088,160.889648 128.958206,157.387451 
	C114.886116,153.185593 105.953949,141.935745 105.644844,127.283615 
	C105.504829,120.646561 105.185783,113.922668 110.171593,108.240585 
z"/>
<path fill="#000000" opacity="1.000000" stroke="none" 
	d="
M241.082550,278.258514 
	C235.992462,279.277344 232.480667,277.597382 230.677444,273.171997 
	C229.114349,269.335907 230.423279,265.944397 233.591522,263.496033 
	C236.831924,260.991974 240.385941,261.020233 243.712036,263.421661 
	C249.224136,267.401367 248.138947,274.284424 241.082550,278.258514 
z"/>
<path fill="#000000" opacity="1.000000" stroke="none" 
	d="
M119.530182,277.711761 
	C111.710419,279.638733 105.987541,275.327271 107.266060,268.858612 
	C108.052910,264.877594 110.419853,262.283417 114.531609,261.794281 
	C118.594223,261.311035 121.720467,263.094086 123.356773,266.800201 
	C125.329254,271.267731 123.673988,274.808716 119.530182,277.711761 
z"/>
<path fill="#000000" opacity="1.000000" stroke="none" 
	d="
M113.805557,303.099121 
	C107.899406,304.563049 103.711220,302.686066 102.098228,298.159241 
	C100.761421,294.407501 102.555344,289.886505 106.147057,287.955444 
	C110.060349,285.851501 114.606544,286.913239 117.171257,290.530090 
	C119.918259,294.403992 118.725204,299.342377 113.805557,303.099121 
z"/>
<path fill="#000000" opacity="1.000000" stroke="none" 
	d="
M170.260345,223.528320 
	C173.580338,219.856674 177.220627,218.964142 181.286346,221.112045 
	C184.842743,222.990875 185.826843,226.251694 185.269592,230.032318 
	C184.681076,234.025009 182.039368,236.065170 178.305984,236.870300 
	C175.228882,237.533905 172.748032,236.372009 170.782654,234.044983 
	C168.082748,230.848267 168.053116,227.414444 170.260345,223.528320 
z"/>
<path fill="#000000" opacity="1.000000" stroke="none" 
	d="
M242.487961,303.725067 
	C238.451248,302.484039 236.067322,300.228729 235.701309,296.236816 
	C235.404434,292.998932 236.428375,290.308472 239.184540,288.462738 
	C242.241562,286.415588 245.449600,286.273102 248.577423,288.232300 
	C251.753647,290.221802 252.826874,293.276428 252.232880,296.865662 
	C251.670135,300.265900 249.797043,302.659454 246.286514,303.433624 
	C245.169739,303.679871 244.004135,303.704651 242.487961,303.725067 
z"/>
<path fill="#000000" opacity="1.000000" stroke="none" 
	d="
M218.112579,337.202271 
	C221.950439,333.726135 225.947433,333.496307 229.677841,336.203979 
	C232.869690,338.520752 234.079758,341.881256 232.353577,345.861115 
	C230.612000,349.876526 227.560608,351.696625 223.289352,351.207550 
	C217.041000,350.492035 214.515732,343.988373 218.112579,337.202271 
z"/>
<path fill="#000000" opacity="1.000000" stroke="none" 
	d="
M224.090790,256.336487 
	C218.424744,254.977753 215.432831,251.690491 216.034790,247.535629 
	C216.632370,243.411026 218.728470,240.371475 223.196884,239.739044 
	C227.721191,239.098694 231.575241,241.613846 232.784958,245.857513 
	C234.242920,250.971985 230.840149,255.283966 224.090790,256.336487 
z"/>
<path fill="#000000" opacity="1.000000" stroke="none" 
	d="
M122.945190,316.414795 
	C124.972519,322.199799 123.482613,326.373016 118.996429,328.364319 
	C115.001617,330.137512 110.551727,328.681732 108.258202,324.851257 
	C106.072823,321.201385 107.116768,316.270447 110.599091,313.794495 
	C114.750099,310.843109 118.515778,311.548615 122.945190,316.414795 
z"/>
<path fill="#000000" opacity="1.000000" stroke="none" 
	d="
M243.384857,327.575623 
	C238.045059,329.839478 234.300461,329.058350 231.677170,325.416687 
	C229.185745,321.958038 229.632248,318.403168 232.061630,315.328552 
	C234.697952,311.992035 238.402222,311.229858 242.326447,312.985413 
	C248.006332,315.526398 248.571945,321.896454 243.384857,327.575623 
z"/>
<path fill="#000000" opacity="1.000000" stroke="none" 
	d="
M128.474884,334.585083 
	C134.465073,334.846771 137.940247,337.481018 138.190262,342.015381 
	C138.423676,346.248047 136.501587,349.369904 132.392242,350.823273 
	C128.367676,352.246674 124.306488,350.590851 122.247253,346.831573 
	C119.581726,341.965454 122.077026,336.765442 128.474884,334.585083 
z"/>
<path fill="#000000" opacity="1.000000" stroke="none" 
	d="
M194.124939,354.631378 
	C196.001282,349.675995 199.426346,347.952362 204.089691,348.728943 
	C207.738754,349.336609 209.931870,351.701385 210.613754,355.301758 
	C211.340088,359.136658 209.825760,362.127075 206.583771,364.143463 
	C203.853317,365.841675 200.824829,365.980743 198.111038,364.300476 
	C194.749451,362.219147 193.126434,359.098206 194.124939,354.631378 
z"/>
<path fill="#000000" opacity="1.000000" stroke="none" 
	d="
M198.875244,241.661148 
	C194.923416,239.229630 192.933960,236.179184 194.106979,231.841522 
	C194.991974,228.568954 196.985397,226.244202 200.580399,225.717911 
	C206.046967,224.917648 210.543854,228.252899 210.853516,233.346802 
	C211.158890,238.370255 207.080521,242.367340 201.680450,242.279739 
	C200.863068,242.266479 200.049728,242.002579 198.875244,241.661148 
z"/>
<path fill="#000000" opacity="1.000000" stroke="none" 
	d="
M171.408783,368.540161 
	C168.071991,364.812012 167.730347,361.038544 170.358307,357.318176 
	C172.438187,354.373749 175.523956,353.061951 179.123413,354.089844 
	C182.337585,355.007660 184.817856,356.917114 185.266281,360.536346 
	C185.700043,364.037201 185.091644,367.233459 181.834549,369.276886 
	C178.380630,371.443817 174.955597,371.498840 171.408783,368.540161 
z"/>
<path fill="#000000" opacity="1.000000" stroke="none" 
	d="
M122.123344,244.331039 
	C125.783455,239.598557 130.041702,238.270386 133.887955,240.671982 
	C137.474823,242.911667 139.126938,246.175781 137.781174,250.452881 
	C136.442902,254.706161 132.485062,257.011292 128.013123,256.253479 
	C123.066368,255.415176 120.712753,250.920639 122.123344,244.331039 
z"/>
<path fill="#000000" opacity="1.000000" stroke="none" 
	d="
M147.985809,241.440704 
	C143.949692,238.824417 142.908768,235.310547 143.928818,231.266159 
	C144.724152,228.112793 147.013168,226.218094 150.283127,225.739059 
	C153.844406,225.217361 156.876541,226.151321 158.949005,229.286957 
	C161.000366,232.390640 160.975601,235.654877 158.897079,238.606415 
	C156.287888,242.311615 152.602386,243.188828 147.985809,241.440704 
z"/>
<path fill="#000000" opacity="1.000000" stroke="none" 
	d="
M160.158432,358.573608 
	C158.478134,363.766602 155.138809,366.009644 150.164536,365.150360 
	C146.570023,364.529388 144.304916,362.135010 143.725601,358.472137 
	C142.878677,353.117188 145.959518,349.061951 151.021896,348.678101 
	C156.895569,348.232758 160.101822,351.538208 160.158432,358.573608 
z"/>
</svg>
